assets/images/workflows.svg

<svg xmlns="http://www.w3.org/2000/svg" xmlns:xlink="http://www.w3.org/1999/xlink" id="Layer_1" x="0" y="0" version="1.1" viewBox="0 0 20 20" style="enable-background:new 0 0 20 20" xml:space="preserve"><style type="text/css">.st0{fill-rule:evenodd;clip-rule:evenodd}</style><path d="M6.8341 4.9863C6.42615 6.15864 5.31133 7 4 7C2.34315 7 1 5.65685 1 4C1 2.34315 2.34315 1 4 1C5.31133 1 6.42615 1.84136 6.8341 3.0137C6.88806 3.00469 6.94348 3 7 3H12.25C14.3211 3 16 4.67893 16 6.75C16 8.82107 14.3211 10.5 12.25 10.5H7.75C6.7835 10.5 6 11.2835 6 12.25C6 13.2165 6.7835 14 7.75 14H15.5858L14.7929 13.2071C14.4024 12.8166 14.4024 12.1834 14.7929 11.7929C15.1834 11.4024 15.8166 11.4024 16.2071 11.7929L18.7066 14.2924C18.7069 14.2927 18.7073 14.2931 18.7076 14.2934L19.4142 15L18.7074 15.7068C18.7072 15.707 18.707 15.7072 18.7068 15.7074L16.2071 18.2071C15.8166 18.5976 15.1834 18.5976 14.7929 18.2071C14.4024 17.8166 14.4024 17.1834 14.7929 16.7929L15.5858 16H7.75C5.67893 16 4 14.3211 4 12.25C4 10.1789 5.67893 8.5 7.75 8.5H12.25C13.2165 8.5 14 7.7165 14 6.75C14 5.7835 13.2165 5 12.25 5H7C6.94348 5 6.88806 4.99531 6.8341 4.9863Z" class="st0"/></svg>

<svg xmlns="http://www.w3.org/2000/svg" xml:space="preserve" id="Layer_1" x="0" y="0" viewBox="0 0 20 20"><style>.st0{fill-rule:evenodd;clip-rule:evenodd}</style><path d="M6.834 4.986A3.001 3.001 0 0 1 1 4a3 3 0 0 1 5.834-.986Q6.916 3 7 3h5.25a3.75 3.75 0 1 1 0 7.5h-4.5a1.75 1.75 0 1 0 0 3.5h7.836l-.793-.793a1 1 0 0 1 1.414-1.414l2.5 2.5.707.707-.707.707-2.5 2.5a1 1 0 0 1-1.414-1.414l.793-.793H7.75a3.75 3.75 0 1 1 0-7.5h4.5a1.75 1.75 0 1 0 0-3.5H7q-.085 0-.166-.014" class="st0"/></svg>
